packages/kaspersky-hexa-ui-icons/src/iconsSVGs/48/PinMapLocation.svg

<svg xmlns="http://www.w3.org/2000/svg" width="48" height="48" fill="none" viewBox="0 0 48 48"><path fill="currentColor" fill-rule="evenodd" d="m23.26 39.35.65.56.65-.56c.59-.5 14.35-12.5 14.35-24.35 0-8.2843-6.7157-15-15-15s-15 6.7157-15 15c0 11.85 13.76 23.85 14.35 24.35M23.91 2c7.1797 0 13 5.8203 13 13 0 9.53-10.28 19.72-13 22.25-2.72-2.53-13-12.71-13-22.25 0-7.1797 5.8203-13 13-13m5 12c0-2.7614-2.2386-5-5-5s-5 2.2386-5 5 2.2386 5 5 5 5-2.2386 5-5m-8 0c0-1.6569 1.3431-3 3-3s3 1.3431 3 3-1.3431 3-3 3-3-1.3431-3-3m26.91 34H0l8.27-18h3.64v2H9.55L3.12 46H44.7l-6.43-14h-2.36v-2h3.64z" clip-rule="evenodd"/></svg>

<svg width="48" height="48" viewBox="0 0 48 48" fill="none" xmlns="http://www.w3.org/2000/svg">
<path fill-rule="evenodd" clip-rule="evenodd" d="M23.26 39.35L23.91 39.91L24.56 39.35C25.15 38.85 38.91 26.85 38.91 15C38.91 6.71573 32.1943 0 23.91 0C15.6257 0 8.91 6.71573 8.91 15C8.91 26.85 22.67 38.85 23.26 39.35ZM23.91 2C31.0897 2 36.91 7.8203 36.91 15C36.91 24.53 26.63 34.72 23.91 37.25C21.19 34.72 10.91 24.54 10.91 15C10.91 7.8203 16.7303 2 23.91 2ZM28.91 14C28.91 11.2386 26.6714 9 23.91 9C21.1486 9 18.91 11.2386 18.91 14C18.91 16.7614 21.1486 19 23.91 19C26.6714 19 28.91 16.7614 28.91 14ZM20.91 14C20.91 12.3431 22.2531 11 23.91 11C25.5669 11 26.91 12.3431 26.91 14C26.91 15.6569 25.5669 17 23.91 17C22.2531 17 20.91 15.6569 20.91 14ZM47.82 48H0L8.27 30H11.91V32H9.55L3.12 46H44.7L38.27 32H35.91V30H39.55L47.82 48Z"  fill="currentColor"/>
</svg>
